X: 43159
T: Winter Night Schottische, The
R: barndance
M: 4/4
K: Cmajor
c'2 e>f g2 c>d|e>Bc>A G4|G>AB>c d>ef>g|a2 g>^f g4|
c'2 e>f g2 c>d|e>Bc>A G4|G>AB>c d>ef>B|c2 c>B c2 z2||
|:A2 A>^G A>Bc>d|e2 e>^d e2 a2|e2 a2 e2 d2|c>dc>B A2 E2|
A2 A>^G A>Bc>d|e2 e>^d e2 a2|e2 d>e c>dB>c|1 A2 z2 a2 z2:|2 A2 z2 [B2g2] z2||
c'2 e>f g2 c>d|e>Bc>A G4|G>AB>c d>ef>g|a2 g>^f g4|
c'2 e>f g2 c>d|e>Bc>A G4|G>AB>c d>ef>B|c2 c>B c2 z2||
K: FMaj
|:"trio"f2 fa cfAc|FAcf a4|g2 gb egce|Gceg b4|
f2 fa cfAc|FAcf a3 f|efga bcde|f2 f2 f2 z2:|
K: CMaj
c'2 e>f g2 c>d|e>Bc>A G4|G>AB>c d>ef>g|a2 g>^f g4|
c'2 e>f g2 c>d|e>Bc>A G4|G>AB>c d>ef>B|c2 c>B c2 z2||

